Newaita-dark/apps/32/latexila.svg

<svg height="32pt" viewBox="0 0 32 32" width="32pt" xmlns="http://www.w3.org/2000/svg" xmlns:xlink="http://www.w3.org/1999/xlink"><linearGradient id="a" gradientUnits="userSpaceOnUse" x1="15.876521" x2="15.876521" y1="28.033935" y2="29.35697887502"><stop offset="0" stop-opacity=".27451"/><stop offset="1" stop-opacity="0"/></linearGradient><linearGradient id="b"><stop offset="0" stop-opacity=".313725"/><stop offset=".222222" stop-opacity=".27451"/><stop offset="1" stop-opacity="0"/></linearGradient><radialGradient id="c" cx="450.90894" cy="189.57936" gradientTransform="matrix(.00000017 -.0781325 -.140638 -.0000001 48.823045 63.595334)" gradientUnits="userSpaceOnUse" r="21.166656" xlink:href="#b"/><radialGradient id="d" cx="450.90894" cy="189.57936" gradientTransform="matrix(-.00000017 .0781325 .140638 .0000001 -17.73153 -7.527479)" gradientUnits="userSpaceOnUse" r="21.166656" xlink:href="#b"/><radialGradient id="e" cx="450.90894" cy="189.57936" gradientTransform="matrix(-.00000017 -.0781325 .140638 -.0000001 -17.731531 63.595335)" gradientUnits="userSpaceOnUse" r="21.166656" xlink:href="#b"/><radialGradient id="f" cx="450.90894" cy="189.57936" gradientTransform="matrix(.00000017 .0781325 -.140638 .0000001 48.823043 -7.527479)" gradientUnits="userSpaceOnUse" r="21.166656" xlink:href="#b"/><linearGradient id="g" gradientUnits="userSpaceOnUse" x1="15.54572" x2="15.54572" y1="28.0338647916" y2="2.89610346856"><stop offset="0" stop-color="#ffca28"/><stop offset="1" stop-color="#ffd54f"/></linearGradient><linearGradient id="h"><stop offset="0" stop-color="#26a69a"/><stop offset="1" stop-color="#4db6ac"/></linearGradient><linearGradient id="i" gradientUnits="userSpaceOnUse" x1="15.54572" x2="15.54572" xlink:href="#h" y1="28.0338647916" y2="2.89610346856"/><linearGradient id="j" gradientTransform="matrix(.0116942 .0116942 -.0116942 .0116942 20.837577 1.947994)" gradientUnits="userSpaceOnUse" x1="1157.7817" x2="614.72894" xlink:href="#h" y1="1072.8989" y2="504.99619"/><path d="m8.601562 28.035156h13.890626v1.320313h-13.890626zm0 0" fill="url(#a)"/><path d="m22.492188 28.035156h2.644531v-1.324218h-2.644531zm0 0" fill="url(#c)"/><path d="m8.601562 28.035156h-2.648437v1.320313h2.648437zm0 0" fill="url(#d)"/><path d="m8.601562 28.035156h-2.648437v-1.324218h2.648437zm0 0" fill="url(#e)"/><path d="m22.492188 28.035156h2.644531v1.320313h-2.644531zm0 0" fill="url(#f)"/><path d="m7.277344 2.894531c-.734375 0-1.324219.589844-1.324219 1.324219v22.492188c0 .734374.589844 1.324218 1.324219 1.324218h16.539062c.730469 0 1.320313-.589844 1.320313-1.324218v-17.859376l-5.953125-5.957031zm13.230468 0 4.628907 4.632813v-3.308594c0-.734375-.589844-1.324219-1.320313-1.324219zm0 0" fill="url(#g)"/><path d="m20.507812 2.894531 4.628907 4.632813v-3.308594c0-.734375-.589844-1.324219-1.320313-1.324219zm0 0" fill="url(#i)"/><path d="m7.277344 2.894531c-.734375 0-1.324219.589844-1.324219 1.324219v.332031c0-.734375.589844-1.324219 1.324219-1.324219h11.90625l5.953125 5.953126v-.328126l-5.953125-5.957031zm13.230468 0 .332032.332031h2.976562c.730469 0 1.320313.589844 1.320313 1.324219v-.332031c0-.734375-.589844-1.324219-1.320313-1.324219zm0 0" fill="#fff" fill-opacity=".392157"/><path d="m20.507812 2.894531 4.628907 4.632813v-.492188l-4.140625-4.140625zm-14.554687 23.324219v.492188c0 .734374.589844 1.324218 1.324219 1.324218h16.539062c.730469 0 1.320313-.589844 1.320313-1.324218v-.492188c0 .734375-.589844 1.324219-1.320313 1.324219h-16.539062c-.734375 0-1.324219-.589844-1.324219-1.324219zm0 0" fill-opacity=".235294"/><path d="m7.277344 2.800781c-.785156 0-1.417969.636719-1.417969 1.417969v22.492188c0 .785156.632813 1.417968 1.417969 1.417968h16.539062c.78125 0 1.414063-.632812 1.414063-1.417968v-17.859376c0-.027343-.007813-.050781-.027344-.066406l-5.953125-5.957031c-.015625-.015625-.039062-.027344-.066406-.027344zm13.230468 0c-.039062 0-.074218.023438-.085937.058594-.015625.035156-.007813.078125.019531.101563l4.628906 4.632812c.027344.027344.066407.035156.101563.019531s.058594-.046875.058594-.085937v-3.308594c0-.78125-.632813-1.417969-1.414063-1.417969zm-13.230468.1875h11.867187l5.898438 5.898438v17.824219c0 .683593-.546875 1.230468-1.226563 1.230468h-16.539062c-.683594 0-1.230469-.546875-1.230469-1.230468v-22.492188c0-.683594.546875-1.230469 1.230469-1.230469zm13.457031 0h3.082031c.679688 0 1.226563.546875 1.226563 1.230469v3.082031zm0 0" fill="#212121"/><path d="m24.871094 17.171875c-.339844 0-.675782.128906-.9375.390625l-5.378906 5.378906 3.277343 3.273438.699219-.703125 4.679688-4.675781c.515624-.519532.515624-1.351563 0-1.871094l-1.40625-1.402344c-.257813-.261719-.597657-.390625-.933594-.390625zm-7.015625 6.46875c-.078125.078125-.136719.171875-.167969.289063l-.9375 3.273437c-.140625.5.320312.960937.816406.816406l3.277344-.933593c.113281-.035157.210938-.09375.285156-.167969zm0 0" fill="url(#j)"/><path d="m24.871094 17.171875c-.339844 0-.675782.128906-.9375.390625l-5.378906 5.378906.277343.273438.425781-.425782 4.675782-4.679687c.519531-.515625 1.355468-.515625 1.871094 0l1.40625 1.40625c.1875.1875.304687.417969.359374.660156.089844-.421875-.03125-.882812-.359374-1.210937l-1.40625-1.402344c-.257813-.261719-.597657-.390625-.933594-.390625zm0 0" fill="#d7d7d7" fill-opacity=".588235"/><path d="m24.871094 17.171875c-.339844 0-.675782.128906-.9375.390625l-5.378906 5.378906.179687.179688 5.199219-5.199219c.019531-.015625.035156-.03125.050781-.046875s.035156-.03125.050781-.046875c.027344-.019531.054688-.039063.082032-.058594.027343-.019531.054687-.035156.082031-.054687.039062-.019532.074219-.042969.113281-.058594.136719-.066406.285156-.105469.429688-.117188.042968-.003906.085937-.007812.128906-.007812.042968 0 .085937.003906.125.007812.148437.011719.292968.050782.429687.117188.039063.015625.078125.039062.117188.058594.027343.019531.054687.035156.082031.054687s.054688.039063.082031.058594c.015625.015625.03125.03125.050781.046875.015626.015625.03125.03125.046876.046875l1.40625 1.402344c.011718.011719.023437.023437.035156.035156.003906.003906.003906.007813.007812.011719.007813.011718.015625.019531.023438.027344.003906.003906.007812.007812.011718.015624l.027344.027344c0 .003906.003906.007813.003906.007813.011719.015625.019532.027343.03125.042969 0 .003906.003907.003906.003907.007812.007812.011719.015625.023438.023437.03125.003906.003906.003906.007812.007813.011719.007812.011719.015625.023437.023437.035156 0 .003906 0 .003906.003906.007813.007813.015624.015626.03125.023438.042968.007812.015625.015625.03125.023438.046875.003906.003907.003906.003907.003906.007813.007812.011718.011718.023437.019531.035156 0 .003906 0 .007812.003906.011719.003907.015625.011719.03125.019531.046875.003907.015625.011719.03125.015626.046875.007812.015625.011718.03125.015624.046875 0 .003906 0 .003906.003907.007812.003906.015625.007812.03125.011719.046875.007812.035157.015624.066407.023437.101563.003906.019531.003906.035156.007813.050781.054687-.394531-.070313-.808594-.375-1.113281l-1.40625-1.402344c-.257813-.261719-.597657-.390625-.933594-.390625zm-7.015625 6.46875c-.078125.078125-.136719.171875-.167969.289063l-.9375 3.273437c-.035156.125-.03125.25 0 .363281v-.003906l.9375-3.273438c.03125-.117187.089844-.210937.167969-.289062l3.054687 3.058594c.085938-.03125.160156-.082032.21875-.140625zm0 0" fill="#d7d7d7" fill-opacity=".588235" fill-rule="evenodd"/><path d="m27.585938 19.734375c-.035157.28125-.160157.554687-.375.769531l-5.378907 5.378906-3.109375-3.109374-.167968.167968 3.277343 3.273438.699219-.703125 4.679688-4.675781c.300781-.300782.425781-.710938.375-1.101563zm-6.652344 6.984375c-.03125.015625-.058594.027344-.089844.035156l-3.277344.933594c-.375.109375-.730468-.128906-.820312-.46875-.125.492188.328125.941406.820312.800781l3.277344-.933593c.113281-.035157.210938-.09375.285156-.167969zm0 0" fill-opacity=".235294"/><g fill="none" stroke="#212121" stroke-linecap="round" stroke-linejoin="round" stroke-width="3" transform="matrix(.062506 0 0 .062506 0 13.438783)"><path d="m412.835576 65.973168c-8.249212-8.311706-21.622935-8.311706-29.934641 0l-86.054282 86.054283 52.432493 52.369999 11.186431-11.248926 74.867851-74.805357c8.249212-8.311706 8.249212-21.622935 0-29.934641zm0 0"/><path d="m285.660221 163.213882c-1.249881 1.249881-2.187291 2.749738-2.687244 4.624559l-14.998567 52.369999c-2.249785 7.999236 5.12451 15.373532 13.061252 13.061252l52.432493-14.936073c1.812327-.562447 3.374678-1.499857 4.562065-2.687244zm0 0"/></g></svg>

<?xml version="1.0" encoding="UTF-8"?>
<svg xmlns="http://www.w3.org/2000/svg" xmlns:xlink="http://www.w3.org/1999/xlink" width="32pt" height="32pt" viewBox="0 0 32 32" version="1.1">
<defs>
<linearGradient id="linear0" gradientUnits="userSpaceOnUse" x1="254" y1="233.5" x2="254" y2="254.66667" gradientTransform="matrix(0.062506,0,0,0.062506,-0.00000250024,13.438784)">
<stop offset="0" style="stop-color:rgb(0%,0%,0%);stop-opacity:0.27451;"/>
<stop offset="1" style="stop-color:rgb(0%,0%,0%);stop-opacity:0;"/>
</linearGradient>
<radialGradient id="radial0" gradientUnits="userSpaceOnUse" cx="450.90894" cy="189.57936" fx="450.90894" fy="189.57936" r="21.166656" gradientTransform="matrix(0.00000017417,-0.0781325,-0.140638,-0.000000101539,48.823045,63.595334)">
<stop offset="0" style="stop-color:rgb(0%,0%,0%);stop-opacity:0.313725;"/>
<stop offset="0.222222" style="stop-color:rgb(0%,0%,0%);stop-opacity:0.27451;"/>
<stop offset="1" style="stop-color:rgb(0%,0%,0%);stop-opacity:0;"/>
</radialGradient>
<radialGradient id="radial1" gradientUnits="userSpaceOnUse" cx="450.90894" cy="189.57936" fx="450.90894" fy="189.57936" r="21.166656" gradientTransform="matrix(-0.00000017417,0.0781325,0.140638,0.000000101539,-17.73153,-7.527479)">
<stop offset="0" style="stop-color:rgb(0%,0%,0%);stop-opacity:0.313725;"/>
<stop offset="0.222222" style="stop-color:rgb(0%,0%,0%);stop-opacity:0.27451;"/>
<stop offset="1" style="stop-color:rgb(0%,0%,0%);stop-opacity:0;"/>
</radialGradient>
<radialGradient id="radial2" gradientUnits="userSpaceOnUse" cx="450.90894" cy="189.57936" fx="450.90894" fy="189.57936" r="21.166656" gradientTransform="matrix(-0.00000017417,-0.0781325,0.140638,-0.000000101539,-17.731531,63.595335)">
<stop offset="0" style="stop-color:rgb(0%,0%,0%);stop-opacity:0.313725;"/>
<stop offset="0.222222" style="stop-color:rgb(0%,0%,0%);stop-opacity:0.27451;"/>
<stop offset="1" style="stop-color:rgb(0%,0%,0%);stop-opacity:0;"/>
</radialGradient>
<radialGradient id="radial3" gradientUnits="userSpaceOnUse" cx="450.90894" cy="189.57936" fx="450.90894" fy="189.57936" r="21.166656" gradientTransform="matrix(0.00000017417,0.0781325,-0.140638,0.000000101539,48.823043,-7.527479)">
<stop offset="0" style="stop-color:rgb(0%,0%,0%);stop-opacity:0.313725;"/>
<stop offset="0.222222" style="stop-color:rgb(0%,0%,0%);stop-opacity:0.27451;"/>
<stop offset="1" style="stop-color:rgb(0%,0%,0%);stop-opacity:0;"/>
</radialGradient>
<linearGradient id="linear1" gradientUnits="userSpaceOnUse" x1="940" y1="1695.1182" x2="940" y2="175.11812" gradientTransform="matrix(0.016538,0,0,0.016538,0,0)">
<stop offset="0" style="stop-color:rgb(100%,79.215686%,15.686275%);stop-opacity:1;"/>
<stop offset="1" style="stop-color:rgb(100%,83.529412%,30.980392%);stop-opacity:1;"/>
</linearGradient>
<linearGradient id="linear2" gradientUnits="userSpaceOnUse" x1="940" y1="1695.1182" x2="940" y2="175.11812" gradientTransform="matrix(0.016538,0,0,0.016538,0,0)">
<stop offset="0" style="stop-color:rgb(14.901961%,65.098039%,60.392157%);stop-opacity:1;"/>
<stop offset="1" style="stop-color:rgb(30.196078%,71.372549%,67.45098%);stop-opacity:1;"/>
</linearGradient>
<linearGradient id="linear3" gradientUnits="userSpaceOnUse" x1="1157.7817" y1="1072.8989" x2="614.72894" y2="504.99619" gradientTransform="matrix(0.0116942,0.0116942,-0.0116942,0.0116942,20.837577,1.947994)">
<stop offset="0" style="stop-color:rgb(14.901961%,65.098039%,60.392157%);stop-opacity:1;"/>
<stop offset="1" style="stop-color:rgb(30.196078%,71.372549%,67.45098%);stop-opacity:1;"/>
</linearGradient>
</defs>
<g id="surface1">
<path style=" stroke:none;fill-rule:nonzero;fill:url(#linear0);" d="M 8.601562 28.035156 L 22.492188 28.035156 L 22.492188 29.355469 L 8.601562 29.355469 Z M 8.601562 28.035156 "/>
<path style=" stroke:none;fill-rule:nonzero;fill:url(#radial0);" d="M 22.492188 28.035156 L 25.136719 28.035156 L 25.136719 26.710938 L 22.492188 26.710938 Z M 22.492188 28.035156 "/>
<path style=" stroke:none;fill-rule:nonzero;fill:url(#radial1);" d="M 8.601562 28.035156 L 5.953125 28.035156 L 5.953125 29.355469 L 8.601562 29.355469 Z M 8.601562 28.035156 "/>
<path style=" stroke:none;fill-rule:nonzero;fill:url(#radial2);" d="M 8.601562 28.035156 L 5.953125 28.035156 L 5.953125 26.710938 L 8.601562 26.710938 Z M 8.601562 28.035156 "/>
<path style=" stroke:none;fill-rule:nonzero;fill:url(#radial3);" d="M 22.492188 28.035156 L 25.136719 28.035156 L 25.136719 29.355469 L 22.492188 29.355469 Z M 22.492188 28.035156 "/>
<path style=" stroke:none;fill-rule:nonzero;fill:url(#linear1);" d="M 7.277344 2.894531 C 6.542969 2.894531 5.953125 3.484375 5.953125 4.21875 L 5.953125 26.710938 C 5.953125 27.445312 6.542969 28.035156 7.277344 28.035156 L 23.816406 28.035156 C 24.546875 28.035156 25.136719 27.445312 25.136719 26.710938 L 25.136719 8.851562 L 19.183594 2.894531 Z M 20.507812 2.894531 L 25.136719 7.527344 L 25.136719 4.21875 C 25.136719 3.484375 24.546875 2.894531 23.816406 2.894531 Z M 20.507812 2.894531 "/>
<path style=" stroke:none;fill-rule:nonzero;fill:url(#linear2);" d="M 20.507812 2.894531 L 25.136719 7.527344 L 25.136719 4.21875 C 25.136719 3.484375 24.546875 2.894531 23.816406 2.894531 Z M 20.507812 2.894531 "/>
<path style=" stroke:none;fill-rule:nonzero;fill:rgb(100%,100%,100%);fill-opacity:0.392157;" d="M 7.277344 2.894531 C 6.542969 2.894531 5.953125 3.484375 5.953125 4.21875 L 5.953125 4.550781 C 5.953125 3.816406 6.542969 3.226562 7.277344 3.226562 L 19.183594 3.226562 L 25.136719 9.179688 L 25.136719 8.851562 L 19.183594 2.894531 Z M 20.507812 2.894531 L 20.839844 3.226562 L 23.816406 3.226562 C 24.546875 3.226562 25.136719 3.816406 25.136719 4.550781 L 25.136719 4.21875 C 25.136719 3.484375 24.546875 2.894531 23.816406 2.894531 Z M 20.507812 2.894531 "/>
<path style=" stroke:none;fill-rule:nonzero;fill:rgb(0%,0%,0%);fill-opacity:0.235294;" d="M 20.507812 2.894531 L 25.136719 7.527344 L 25.136719 7.035156 L 20.996094 2.894531 Z M 5.953125 26.21875 L 5.953125 26.710938 C 5.953125 27.445312 6.542969 28.035156 7.277344 28.035156 L 23.816406 28.035156 C 24.546875 28.035156 25.136719 27.445312 25.136719 26.710938 L 25.136719 26.21875 C 25.136719 26.953125 24.546875 27.542969 23.816406 27.542969 L 7.277344 27.542969 C 6.542969 27.542969 5.953125 26.953125 5.953125 26.21875 Z M 5.953125 26.21875 "/>
<path style=" stroke:none;fill-rule:nonzero;fill:rgb(12.941176%,12.941176%,12.941176%);fill-opacity:1;" d="M 7.277344 2.800781 C 6.492188 2.800781 5.859375 3.4375 5.859375 4.21875 L 5.859375 26.710938 C 5.859375 27.496094 6.492188 28.128906 7.277344 28.128906 L 23.816406 28.128906 C 24.597656 28.128906 25.230469 27.496094 25.230469 26.710938 L 25.230469 8.851562 C 25.230469 8.824219 25.222656 8.800781 25.203125 8.785156 L 19.25 2.828125 C 19.234375 2.8125 19.210938 2.800781 19.183594 2.800781 Z M 20.507812 2.800781 C 20.46875 2.800781 20.433594 2.824219 20.421875 2.859375 C 20.40625 2.894531 20.414062 2.9375 20.441406 2.960938 L 25.070312 7.59375 C 25.097656 7.621094 25.136719 7.628906 25.171875 7.613281 C 25.207031 7.597656 25.230469 7.566406 25.230469 7.527344 L 25.230469 4.21875 C 25.230469 3.4375 24.597656 2.800781 23.816406 2.800781 Z M 7.277344 2.988281 L 19.144531 2.988281 L 25.042969 8.886719 L 25.042969 26.710938 C 25.042969 27.394531 24.496094 27.941406 23.816406 27.941406 L 7.277344 27.941406 C 6.59375 27.941406 6.046875 27.394531 6.046875 26.710938 L 6.046875 4.21875 C 6.046875 3.535156 6.59375 2.988281 7.277344 2.988281 Z M 20.734375 2.988281 L 23.816406 2.988281 C 24.496094 2.988281 25.042969 3.535156 25.042969 4.21875 L 25.042969 7.300781 Z M 20.734375 2.988281 "/>
<path style=" stroke:none;fill-rule:nonzero;fill:url(#linear3);" d="M 24.871094 17.171875 C 24.53125 17.171875 24.195312 17.300781 23.933594 17.5625 L 18.554688 22.941406 L 21.832031 26.214844 L 22.53125 25.511719 L 27.210938 20.835938 C 27.726562 20.316406 27.726562 19.484375 27.210938 18.964844 L 25.804688 17.5625 C 25.546875 17.300781 25.207031 17.171875 24.871094 17.171875 Z M 17.855469 23.640625 C 17.777344 23.71875 17.71875 23.8125 17.6875 23.929688 L 16.75 27.203125 C 16.609375 27.703125 17.070312 28.164062 17.566406 28.019531 L 20.84375 27.085938 C 20.957031 27.050781 21.054688 26.992188 21.128906 26.917969 Z M 17.855469 23.640625 "/>
<path style=" stroke:none;fill-rule:nonzero;fill:rgb(84.313725%,84.313725%,84.313725%);fill-opacity:0.588235;" d="M 24.871094 17.171875 C 24.53125 17.171875 24.195312 17.300781 23.933594 17.5625 L 18.554688 22.941406 L 18.832031 23.214844 L 19.257812 22.789062 L 23.933594 18.109375 C 24.453125 17.59375 25.289062 17.59375 25.804688 18.109375 L 27.210938 19.515625 C 27.398438 19.703125 27.515625 19.933594 27.570312 20.175781 C 27.660156 19.753906 27.539062 19.292969 27.210938 18.964844 L 25.804688 17.5625 C 25.546875 17.300781 25.207031 17.171875 24.871094 17.171875 Z M 24.871094 17.171875 "/>
<path style=" stroke:none;fill-rule:evenodd;fill:rgb(84.313725%,84.313725%,84.313725%);fill-opacity:0.588235;" d="M 24.871094 17.171875 C 24.53125 17.171875 24.195312 17.300781 23.933594 17.5625 L 18.554688 22.941406 L 18.734375 23.121094 L 23.933594 17.921875 C 23.953125 17.90625 23.96875 17.890625 23.984375 17.875 C 24 17.859375 24.019531 17.84375 24.035156 17.828125 C 24.0625 17.808594 24.089844 17.789062 24.117188 17.769531 C 24.144531 17.75 24.171875 17.734375 24.199219 17.714844 C 24.238281 17.695312 24.273438 17.671875 24.3125 17.65625 C 24.449219 17.589844 24.597656 17.550781 24.742188 17.539062 C 24.785156 17.535156 24.828125 17.53125 24.871094 17.53125 C 24.914062 17.53125 24.957031 17.535156 24.996094 17.539062 C 25.144531 17.550781 25.289062 17.589844 25.425781 17.65625 C 25.464844 17.671875 25.503906 17.695312 25.542969 17.714844 C 25.570312 17.734375 25.597656 17.75 25.625 17.769531 C 25.652344 17.789062 25.679688 17.808594 25.707031 17.828125 C 25.722656 17.84375 25.738281 17.859375 25.757812 17.875 C 25.773438 17.890625 25.789062 17.90625 25.804688 17.921875 L 27.210938 19.324219 C 27.222656 19.335938 27.234375 19.347656 27.246094 19.359375 C 27.25 19.363281 27.25 19.367188 27.253906 19.371094 C 27.261719 19.382812 27.269531 19.390625 27.277344 19.398438 C 27.28125 19.402344 27.285156 19.40625 27.289062 19.414062 C 27.296875 19.421875 27.308594 19.433594 27.316406 19.441406 C 27.316406 19.445312 27.320312 19.449219 27.320312 19.449219 C 27.332031 19.464844 27.339844 19.476562 27.351562 19.492188 C 27.351562 19.496094 27.355469 19.496094 27.355469 19.5 C 27.363281 19.511719 27.371094 19.523438 27.378906 19.53125 C 27.382812 19.535156 27.382812 19.539062 27.386719 19.542969 C 27.394531 19.554688 27.402344 19.566406 27.410156 19.578125 C 27.410156 19.582031 27.410156 19.582031 27.414062 19.585938 C 27.421875 19.601562 27.429688 19.617188 27.4375 19.628906 C 27.445312 19.644531 27.453125 19.660156 27.460938 19.675781 C 27.464844 19.679688 27.464844 19.679688 27.464844 19.683594 C 27.472656 19.695312 27.476562 19.707031 27.484375 19.71875 C 27.484375 19.722656 27.484375 19.726562 27.488281 19.730469 C 27.492188 19.746094 27.5 19.761719 27.507812 19.777344 C 27.511719 19.792969 27.519531 19.808594 27.523438 19.824219 C 27.53125 19.839844 27.535156 19.855469 27.539062 19.871094 C 27.539062 19.875 27.539062 19.875 27.542969 19.878906 C 27.546875 19.894531 27.550781 19.910156 27.554688 19.925781 C 27.5625 19.960938 27.570312 19.992188 27.578125 20.027344 C 27.582031 20.046875 27.582031 20.0625 27.585938 20.078125 C 27.640625 19.683594 27.515625 19.269531 27.210938 18.964844 L 25.804688 17.5625 C 25.546875 17.300781 25.207031 17.171875 24.871094 17.171875 Z M 17.855469 23.640625 C 17.777344 23.71875 17.71875 23.8125 17.6875 23.929688 L 16.75 27.203125 C 16.714844 27.328125 16.71875 27.453125 16.75 27.566406 C 16.75 27.566406 16.75 27.5625 16.75 27.5625 L 17.6875 24.289062 C 17.71875 24.171875 17.777344 24.078125 17.855469 24 L 20.910156 27.058594 C 20.996094 27.027344 21.070312 26.976562 21.128906 26.917969 Z M 17.855469 23.640625 "/>
<path style=" stroke:none;fill-rule:nonzero;fill:rgb(0%,0%,0%);fill-opacity:0.235294;" d="M 27.585938 19.734375 C 27.550781 20.015625 27.425781 20.289062 27.210938 20.503906 L 21.832031 25.882812 L 18.722656 22.773438 L 18.554688 22.941406 L 21.832031 26.214844 L 22.53125 25.511719 L 27.210938 20.835938 C 27.511719 20.535156 27.636719 20.125 27.585938 19.734375 Z M 20.933594 26.71875 C 20.902344 26.734375 20.875 26.746094 20.84375 26.753906 L 17.566406 27.6875 C 17.191406 27.796875 16.835938 27.558594 16.746094 27.21875 C 16.621094 27.710938 17.074219 28.160156 17.566406 28.019531 L 20.84375 27.085938 C 20.957031 27.050781 21.054688 26.992188 21.128906 26.917969 Z M 20.933594 26.71875 "/>
<path style="fill:none;stroke-width:3;stroke-linecap:round;stroke-linejoin:round;stroke:rgb(12.941176%,12.941176%,12.941176%);stroke-opacity:1;stroke-miterlimit:4;" d="M 412.835576 65.973168 C 404.586364 57.661462 391.212641 57.661462 382.900935 65.973168 L 296.846653 152.027451 L 349.279146 204.39745 L 360.465577 193.148524 L 435.333428 118.343167 C 443.58264 110.031461 443.58264 96.720232 435.333428 88.408526 Z M 412.835576 65.973168 " transform="matrix(0.062506,0,0,0.062506,0,13.438783)"/>
<path style="fill:none;stroke-width:3;stroke-linecap:round;stroke-linejoin:round;stroke:rgb(12.941176%,12.941176%,12.941176%);stroke-opacity:1;stroke-miterlimit:4;" d="M 285.660221 163.213882 C 284.41034 164.463763 283.47293 165.96362 282.972977 167.838441 L 267.97441 220.20844 C 265.724625 228.207676 273.09892 235.581972 281.035662 233.269692 L 333.468155 218.333619 C 335.280482 217.771172 336.842833 216.833762 338.03022 215.646375 Z M 285.660221 163.213882 " transform="matrix(0.062506,0,0,0.062506,0,13.438783)"/>
</g>
</svg>
